symbols/ww_nodrink2.svg

<?xml version="1.0" encoding="UTF-8" standalone="no"?>
<svg
   xmlns:osb="http://www.openswatchbook.org/uri/2009/osb"
   xmlns:dc="http://purl.org/dc/elements/1.1/"
   xmlns:cc="http://creativecommons.org/ns#"
   xmlns:rdf="http://www.w3.org/1999/02/22-rdf-syntax-ns#"
   xmlns:svg="http://www.w3.org/2000/svg"
   xmlns="http://www.w3.org/2000/svg"
   xmlns:sodipodi="http://sodipodi.sourceforge.net/DTD/sodipodi-0.dtd"
   xmlns:inkscape="http://www.inkscape.org/namespaces/inkscape"
   version="1.1"
   id="mdi-water-well-outline"
   width="24"
   height="24"
   viewBox="0 0 24 24"
   sodipodi:docname="ww_nodrink2.svg"
   inkscape:version="0.92.4 (5da689c313, 2019-01-14)">
  <metadata
     id="metadata9">
    <rdf:RDF>
      <cc:Work
         rdf:about="">
        <dc:format>image/svg+xml</dc:format>
        <dc:type
           rdf:resource="http://purl.org/dc/dcmitype/StillImage" />
        <dc:title></dc:title>
      </cc:Work>
    </rdf:RDF>
  </metadata>
  <defs
     id="defs7">
    <linearGradient
       id="linearGradient828"
       osb:paint="gradient">
      <stop
         style="stop-color:#0769ae;stop-opacity:1;"
         offset="0"
         id="stop824" />
      <stop
         style="stop-color:#0769ae;stop-opacity:0;"
         offset="1"
         id="stop826" />
    </linearGradient>
  </defs>
  <sodipodi:namedview
     pagecolor="#ffffff"
     bordercolor="#666666"
     borderopacity="1"
     objecttolerance="10"
     gridtolerance="10"
     guidetolerance="10"
     inkscape:pageopacity="0"
     inkscape:pageshadow="2"
     inkscape:window-width="1621"
     inkscape:window-height="845"
     id="namedview5"
     showgrid="false"
     inkscape:zoom="27.812867"
     inkscape:cx="-0.27912531"
     inkscape:cy="12.882625"
     inkscape:window-x="157"
     inkscape:window-y="95"
     inkscape:window-maximized="0"
     inkscape:current-layer="layer2" />
  <g
     inkscape:groupmode="layer"
     id="layer2"
     inkscape:label="bkga">
    <path
       style="fill:#ffdcdd;fill-opacity:1;stroke:#0000ff;stroke-width:0;stroke-linecap:butt;stroke-linejoin:miter;stroke-miterlimit:4;stroke-dasharray:none;stroke-opacity:1"
       d="M 4.9305031,3.7066475 5.032198,18.299868 5.0830455,21.249021 19.015249,21.147326 18.9983,15.706648 18.811859,3.4524102 Z"
       id="path826"
       inkscape:connector-curvature="0" />
  </g>
  <path
     d="M3.62 8H5V15H7V8H11V10H13V8H17V15H19V8H20.61C21.16 8 21.61 7.56 21.61 7C21.61 6.89 21.6 6.78 21.56 6.68L19 2H5L2.72 6.55C2.47 7.04 2.67 7.64 3.16 7.89C3.31 7.96 3.46 8 3.62 8M6.24 4H17.76L18.76 6H5.24L6.24 4M2 16V18H4V22H20V18H22V16H2M18 20H6V18H18V20M13.93 11C14.21 11 14.43 11.22 14.43 11.5C14.43 11.5 14.43 11.54 14.43 11.56L14.05 14.56C14 14.81 13.81 15 13.56 15H10.44C10.19 15 10 14.81 9.95 14.56L9.57 11.56C9.54 11.29 9.73 11.04 10 11C10.03 11 10.05 11 10.07 11H13.93Z"
     id="path2"
     style="fill:#00ceff;fill-opacity:1;stroke:#0029e3;stroke-opacity:1;stroke-width:0.2;stroke-miterlimit:4;stroke-dasharray:none" />
  <path
     style="fill:#fe4c00;fill-opacity:1;stroke:#ff0000;stroke-width:0.5;stroke-miterlimit:4;stroke-dasharray:none;stroke-opacity:1"
     d="m 10.210188,14.739783 c -0.05843,-0.07041 -0.203377,-0.858927 -0.3220989,-1.752265 -0.204423,-1.538215 -0.2065056,-1.631091 -0.039316,-1.753343 0.1281784,-0.09373 0.7121889,-0.12909 2.1318379,-0.12909 1.075413,0 2.027683,0.02778 2.116156,0.06173 0.202498,0.07771 0.20305,0.349245 0.004,1.967841 -0.233961,1.902504 -0.03209,1.733144 -2.065799,1.733144 -1.257176,0 -1.747064,-0.03437 -1.824783,-0.128014 z"
     id="path834"
     inkscape:connector-curvature="0" />
</svg>

<svg version="1.1" viewBox="0 0 24 24" xmlns="http://www.w3.org/2000/svg" xmlns:osb="http://www.openswatchbook.org/uri/2009/osb">
 <path d="m4.93 3.71.102 14.6.0508 2.95 13.9-.102-.0169-5.44-.186-12.3z" fill="#ffdcdd" stroke-width="0"/>
 <path d="m3.62 8h1.38v7h2v-7h4v2h2v-2h4v7h2v-7h1.61c.55 0 1-.44 1-1 0-.11-.01-.22-.05-.32l-2.56-4.68h-14l-2.28 4.55c-.25.49-.05 1.09.44 1.34.15.07.3.11.46.11m2.62-4h11.5l1 2h-13.5l1-2m-4.24 12v2h2v4h16v-4h2v-2h-20m16 4h-12v-2h12v2m-4.07-9c.28 0 .5.22.5.5v.06l-.38 3c-.05.25-.24.44-.49.44h-3.12c-.25 0-.44-.19-.49-.44l-.38-3c-.03-.27.16-.52.43-.56h.07 3.86z" fill="#00ceff" stroke="#0029e3" stroke-width=".2"/>
 <path d="m10.2 14.7c-.0584-.0704-.203-.859-.322-1.75-.204-1.54-.207-1.63-.0393-1.75.128-.0937.712-.129 2.13-.129 1.08 0 2.03.0278 2.12.0617.202.0777.203.349.004 1.97-.234 1.9-.0321 1.73-2.07 1.73-1.26 0-1.75-.0344-1.82-.128z" fill="#fe4c00" stroke="#f00" stroke-width=".5"/>
</svg>
